app/assets/images/icons/active/concierge.svg

<?xml version="1.0" encoding="UTF-8" standalone="no"?>
<svg width="32px" height="232px" viewBox="0 0 32 232" version="1.1" xmlns="http://www.w3.org/2000/svg" xmlns:xlink="http://www.w3.org/1999/xlink" xmlns:sketch="http://www.bohemiancoding.com/sketch/ns">
    <title>concierge</title>
    <description>Created with Sketch (http://www.bohemiancoding.com/sketch)</description>
    <defs></defs>
    <g id="Hotel-facilities" stroke="none" stroke-width="1" fill="none" fill-rule="evenodd" sketch:type="MSPage">
        <path d="M21.8581031,138.115 C21.622106,137.194 20.691063,136.64 19.7709734,136.882 L15.6982823,137.563 L15.6982823,135.359 C15.6982823,134.897 15.6733881,134.521 15.5897436,134.224 L15.5917351,134.223 C15.5917351,134.223 15.5897436,134.218 15.5877521,134.214 C15.4284292,133.647 15.0550162,133.369 14.2295245,133.324 C14.1817277,133.319 14.1349266,133.317 14.0841424,133.317 L6.20960916,133.317 C4.59746079,133.317 4,133.78 4,135.399 L4,139.166 C4,140.573 4.2240478,141.177 5.61015683,141.208 L5.61015683,141.209 L13.4886731,141.209 C13.6001992,141.209 13.7067463,141.206 13.8083147,141.201 C14.0721932,141.242 14.3430421,141.225 14.6069206,141.184 L20.6323127,140.215 C21.5484192,139.975 22.0990789,139.035 21.8581031,138.115 C21.8581031,138.115 22.0990789,139.035 21.8581031,138.115 L21.8581031,138.115 L21.8581031,138.115 Z M12.7010207,136.541 C12.7010207,136.984 12.3614638,137.225 11.9472243,137.076 L10.0393328,136.395 L8.31764999,136.931 C7.89345283,137.061 7.55090864,136.804 7.55090864,136.362 L7.55090864,135.352 C7.55090864,134.908 7.88946975,134.666 8.30370924,134.816 L10.2155838,135.496 L11.9372666,134.963 C12.3574807,134.832 12.7010207,135.085 12.7010207,135.529 L12.7010207,136.541 Z M27.1516057,142.452 L4.87926313,142.452 C4.41423948,142.452 4.03086881,142.833 4.03086881,143.304 L4.03086881,149.148 C4.03086881,149.619 4.41423948,150 4.87926313,150 L27.1516057,150 C27.6186209,150 28,149.619 28,149.148 L28,143.304 C28,142.833 27.6186209,142.452 27.1516057,142.452 Z M10.1239731,131.749 C12.8065721,131.747 14.9763505,129.566 14.978342,126.875 C14.9763505,124.186 12.8065721,122 10.1239731,122 C7.44436146,122 5.27159572,124.184 5.27159572,126.875 C5.27159572,129.566 7.44436146,131.747 10.1239731,131.749 Z M10.1239731,131.749" id="concierge--white" fill="#206FAC" sketch:type="MSShapeGroup"></path>
        <path d="M21.8581031,98.115 C21.622106,97.194 20.691063,96.64 19.7709734,96.882 L15.6982823,97.563 L15.6982823,95.359 C15.6982823,94.897 15.6733881,94.521 15.5897436,94.224 L15.5917351,94.223 C15.5917351,94.223 15.5897436,94.218 15.5877521,94.214 C15.4284292,93.647 15.0550162,93.369 14.2295245,93.324 C14.1817277,93.319 14.1349266,93.317 14.0841424,93.317 L6.20960916,93.317 C4.59746079,93.317 4,93.78 4,95.399 L4,99.166 C4,100.573 4.2240478,101.177 5.61015683,101.208 L5.61015683,101.209 L13.4886731,101.209 C13.6001992,101.209 13.7067463,101.206 13.8083147,101.201 C14.0721932,101.242 14.3430421,101.225 14.6069206,101.184 L20.6323127,100.215 C21.5484192,99.975 22.0990789,99.035 21.8581031,98.115 C21.8581031,98.115 22.0990789,99.035 21.8581031,98.115 L21.8581031,98.115 L21.8581031,98.115 Z M12.7010207,96.541 C12.7010207,96.984 12.3614638,97.225 11.9472243,97.076 L10.0393328,96.395 L8.31764999,96.931 C7.89345283,97.061 7.55090864,96.804 7.55090864,96.362 L7.55090864,95.352 C7.55090864,94.908 7.88946975,94.666 8.30370924,94.816 L10.2155838,95.496 L11.9372666,94.963 C12.3574807,94.832 12.7010207,95.085 12.7010207,95.529 L12.7010207,96.541 Z M27.1516057,102.452 L4.87926313,102.452 C4.41423948,102.452 4.03086881,102.833 4.03086881,103.304 L4.03086881,109.148 C4.03086881,109.619 4.41423948,110 4.87926313,110 L27.1516057,110 C27.6186209,110 28,109.619 28,109.148 L28,103.304 C28,102.833 27.6186209,102.452 27.1516057,102.452 Z M10.1239731,91.749 C12.8065721,91.747 14.9763505,89.566 14.978342,86.875 C14.9763505,84.186 12.8065721,82 10.1239731,82 C7.44436146,82 5.27159572,84.184 5.27159572,86.875 C5.27159572,89.566 7.44436146,91.747 10.1239731,91.749 Z M10.1239731,91.749" id="concierge--white" fill="#FFFFFF" sketch:type="MSShapeGroup"></path>
        <path d="M21.8581031,58.115 C21.622106,57.194 20.691063,56.64 19.7709734,56.882 L15.6982823,57.563 L15.6982823,55.359 C15.6982823,54.897 15.6733881,54.521 15.5897436,54.224 L15.5917351,54.223 C15.5917351,54.223 15.5897436,54.218 15.5877521,54.214 C15.4284292,53.647 15.0550162,53.369 14.2295245,53.324 C14.1817277,53.319 14.1349266,53.317 14.0841424,53.317 L6.20960916,53.317 C4.59746079,53.317 4,53.78 4,55.399 L4,59.166 C4,60.573 4.2240478,61.177 5.61015683,61.208 L5.61015683,61.209 L13.4886731,61.209 C13.6001992,61.209 13.7067463,61.206 13.8083147,61.201 C14.0721932,61.242 14.3430421,61.225 14.6069206,61.184 L20.6323127,60.215 C21.5484192,59.975 22.0990789,59.035 21.8581031,58.115 C21.8581031,58.115 22.0990789,59.035 21.8581031,58.115 L21.8581031,58.115 L21.8581031,58.115 Z M12.7010207,56.541 C12.7010207,56.984 12.3614638,57.225 11.9472243,57.076 L10.0393328,56.395 L8.31764999,56.931 C7.89345283,57.061 7.55090864,56.804 7.55090864,56.362 L7.55090864,55.352 C7.55090864,54.908 7.88946975,54.666 8.30370924,54.816 L10.2155838,55.496 L11.9372666,54.963 C12.3574807,54.832 12.7010207,55.085 12.7010207,55.529 L12.7010207,56.541 Z M27.1516057,62.452 L4.87926313,62.452 C4.41423948,62.452 4.03086881,62.833 4.03086881,63.304 L4.03086881,69.148 C4.03086881,69.619 4.41423948,70 4.87926313,70 L27.1516057,70 C27.6186209,70 28,69.619 28,69.148 L28,63.304 C28,62.833 27.6186209,62.452 27.1516057,62.452 Z M10.1239731,51.749 C12.8065721,51.747 14.9763505,49.566 14.978342,46.875 C14.9763505,44.186 12.8065721,42 10.1239731,42 C7.44436146,42 5.27159572,44.184 5.27159572,46.875 C5.27159572,49.566 7.44436146,51.747 10.1239731,51.749 Z M10.1239731,51.749" id="concierge--light-grey" fill="#67737B" sketch:type="MSShapeGroup"></path>
        <path d="M21.8581031,18.115 C21.622106,17.194 20.691063,16.64 19.7709734,16.882 L15.6982823,17.563 L15.6982823,15.359 C15.6982823,14.897 15.6733881,14.521 15.5897436,14.224 L15.5917351,14.223 C15.5917351,14.223 15.5897436,14.218 15.5877521,14.214 C15.4284292,13.647 15.0550162,13.369 14.2295245,13.324 C14.1817277,13.319 14.1349266,13.317 14.0841424,13.317 L6.20960916,13.317 C4.59746079,13.317 4,13.78 4,15.399 L4,19.166 C4,20.573 4.2240478,21.177 5.61015683,21.208 L5.61015683,21.209 L13.4886731,21.209 C13.6001992,21.209 13.7067463,21.206 13.8083147,21.201 C14.0721932,21.242 14.3430421,21.225 14.6069206,21.184 L20.6323127,20.215 C21.5484192,19.975 22.0990789,19.035 21.8581031,18.115 C21.8581031,18.115 22.0990789,19.035 21.8581031,18.115 L21.8581031,18.115 L21.8581031,18.115 Z M12.7010207,16.541 C12.7010207,16.984 12.3614638,17.225 11.9472243,17.076 L10.0393328,16.395 L8.31764999,16.931 C7.89345283,17.061 7.55090864,16.804 7.55090864,16.362 L7.55090864,15.352 C7.55090864,14.908 7.88946975,14.666 8.30370924,14.816 L10.2155838,15.496 L11.9372666,14.963 C12.3574807,14.832 12.7010207,15.085 12.7010207,15.529 L12.7010207,16.541 Z M27.1516057,22.452 L4.87926313,22.452 C4.41423948,22.452 4.03086881,22.833 4.03086881,23.304 L4.03086881,29.148 C4.03086881,29.619 4.41423948,30 4.87926313,30 L27.1516057,30 C27.6186209,30 28,29.619 28,29.148 L28,23.304 C28,22.833 27.6186209,22.452 27.1516057,22.452 Z M10.1239731,11.749 C12.8065721,11.747 14.9763505,9.566 14.978342,6.875 C14.9763505,4.186 12.8065721,2 10.1239731,2 C7.44436146,2 5.27159572,4.184 5.27159572,6.875 C5.27159572,9.566 7.44436146,11.747 10.1239731,11.749 Z M10.1239731,11.749" id="concierge--dark-grey" fill="#3A434E" sketch:type="MSShapeGroup"></path>
    </g>
</svg>

<svg width="32" height="232" viewBox="0 0 32 232" xmlns="http://www.w3.org/2000/svg" xmlns:sketch="http://www.bohemiancoding.com/sketch/ns"><title>concierge</title><g sketch:type="MSPage" fill="none"><path d="M21.858 138.115c-.236-.921-1.167-1.475-2.087-1.233l-4.073.681v-2.204c0-.462-.025-.838-.109-1.135l.002-.001-.004-.009c-.159-.567-.533-.845-1.358-.89l-.145-.007h-7.875c-1.612 0-2.21.463-2.21 2.082v3.767c0 1.407.224 2.011 1.61 2.042v.001h7.879l.32-.008c.264.041.535.024.799-.017l6.025-.969c.916-.24 1.467-1.18 1.226-2.1zm-9.157-1.574c0 .443-.34.684-.754.535l-1.908-.681-1.722.536c-.424.13-.767-.127-.767-.569v-1.01c0-.444.339-.686.753-.536l1.912.68 1.722-.533c.42-.131.764.122.764.566v1.012zm14.451 5.911h-22.272c-.465 0-.848.381-.848.852v5.844c0 .471.383.852.848.852h22.272c.467 0 .848-.381.848-.852v-5.844c0-.471-.381-.852-.848-.852zm-17.028-10.703c2.683-.002 4.852-2.183 4.854-4.874-.002-2.689-2.172-4.875-4.854-4.875-2.68 0-4.852 2.184-4.852 4.875s2.173 4.872 4.852 4.874zm0 0" id="concierge--white" fill="#206FAC" sketch:type="MSShapeGroup"/><path d="M21.858 98.115c-.236-.921-1.167-1.475-2.087-1.233l-4.073.681v-2.204c0-.462-.025-.838-.109-1.135l.002-.001-.004-.009c-.159-.567-.533-.845-1.358-.89l-.145-.007h-7.875c-1.612 0-2.21.463-2.21 2.082v3.767c0 1.407.224 2.011 1.61 2.042v.001h7.879l.32-.008c.264.041.535.024.799-.017l6.025-.969c.916-.24 1.467-1.18 1.226-2.1zm-9.157-1.574c0 .443-.34.684-.754.535l-1.908-.681-1.722.536c-.424.13-.767-.127-.767-.569v-1.01c0-.444.339-.686.753-.536l1.912.68 1.722-.533c.42-.131.764.122.764.566v1.012zm14.451 5.911h-22.272c-.465 0-.848.381-.848.852v5.844c0 .471.383.852.848.852h22.272c.467 0 .848-.381.848-.852v-5.844c0-.471-.381-.852-.848-.852zm-17.028-10.703c2.683-.002 4.852-2.183 4.854-4.874-.002-2.689-2.172-4.875-4.854-4.875-2.68 0-4.852 2.184-4.852 4.875s2.173 4.872 4.852 4.874zm0 0" fill="#fff" sketch:type="MSShapeGroup"/><path d="M21.858 58.115c-.236-.921-1.167-1.475-2.087-1.233l-4.073.681v-2.204c0-.462-.025-.838-.109-1.135l.002-.001-.004-.009c-.159-.567-.533-.845-1.358-.89l-.145-.007h-7.875c-1.612 0-2.21.463-2.21 2.082v3.767c0 1.407.224 2.011 1.61 2.042v.001h7.879l.32-.008c.264.041.535.024.799-.017l6.025-.969c.916-.24 1.467-1.18 1.226-2.1zm-9.157-1.574c0 .443-.34.684-.754.535l-1.908-.681-1.722.536c-.424.13-.767-.127-.767-.569v-1.01c0-.444.339-.686.753-.536l1.912.68 1.722-.533c.42-.131.764.122.764.566v1.012zm14.451 5.911h-22.272c-.465 0-.848.381-.848.852v5.844c0 .471.383.852.848.852h22.272c.467 0 .848-.381.848-.852v-5.844c0-.471-.381-.852-.848-.852zm-17.028-10.703c2.683-.002 4.852-2.183 4.854-4.874-.002-2.689-2.172-4.875-4.854-4.875-2.68 0-4.852 2.184-4.852 4.875s2.173 4.872 4.852 4.874zm0 0" fill="#67737B" sketch:type="MSShapeGroup"/><path d="M21.858 18.115c-.236-.921-1.167-1.475-2.087-1.233l-4.073.681v-2.204c0-.462-.025-.838-.109-1.135l.002-.001-.004-.009c-.159-.567-.533-.845-1.358-.89l-.145-.007h-7.875c-1.612 0-2.21.463-2.21 2.082v3.767c0 1.407.224 2.011 1.61 2.042v.001h7.879l.32-.008c.264.041.535.024.799-.017l6.025-.969c.916-.24 1.467-1.18 1.226-2.1zm-9.157-1.574c0 .443-.34.684-.754.535l-1.908-.681-1.722.536c-.424.13-.767-.127-.767-.569v-1.01c0-.444.339-.686.753-.536l1.912.68 1.722-.533c.42-.131.764.122.764.566v1.012zm14.451 5.911h-22.272c-.465 0-.848.381-.848.852v5.844c0 .471.383.852.848.852h22.272c.467 0 .848-.381.848-.852v-5.844c0-.471-.381-.852-.848-.852zm-17.028-10.703c2.683-.002 4.852-2.183 4.854-4.874-.002-2.689-2.172-4.875-4.854-4.875-2.68 0-4.852 2.184-4.852 4.875s2.173 4.872 4.852 4.874zm0 0" fill="#3A434E" sketch:type="MSShapeGroup"/></g></svg>
